X:1
T:Black Sheep -- Jig
R:reel
C:DICK MYERS.
B:Ryan's Mammoth Collection
N: 112 630
Z: Contributed by Ray Davies,  ray:davies99.freeserve.co.uk
M:2/4
L:1/16
K:D
zug|\
vfd"4"ec d2(Ac) | BEBd cAzug | fd"4"ec d2(AG) | FDEG F<D:|
|:zuD|\
D2F2 A2>c2 | BEBd cAzug | fd"4"ec d2(AG) | FDEG FD"_D.C.":|
